X: 1
T: Mary O'Neill's Fancy
M: 4/4
L: 1/8
R: reel
K: Gmaj
(3efg dB G2GE|DG~G2 EGBc|dBAB G2GA|Beed efge|
dBAB G2GE|DG~G2 EGBc|dBAB G2GA|Beed e2ge|
dB~B2 dBgB|dB~B2 d2ge|dB~B2 g2gd|egdB A2AB|
dB~B2 dBgf|edef g2ga|bgaf gfed|(3efg fa g2Bd||
